nestor-downloads/search.svg

<?xml version="1.0" encoding="UTF-8" standalone="no"?>
<!-- Created with Inkscape (http://www.inkscape.org/) -->

<svg
   xmlns:dc="http://purl.org/dc/elements/1.1/"
   xmlns:cc="http://creativecommons.org/ns#"
   xmlns:rdf="http://www.w3.org/1999/02/22-rdf-syntax-ns#"
   xmlns:svg="http://www.w3.org/2000/svg"
   xmlns="http://www.w3.org/2000/svg"
   xmlns:sodipodi="http://sodipodi.sourceforge.net/DTD/sodipodi-0.dtd"
   xmlns:inkscape="http://www.inkscape.org/namespaces/inkscape"
   width="35.433071"
   height="35.433071"
   id="svg2"
   version="1.1"
   inkscape:version="0.48.4 r9939"
   sodipodi:docname="search.svg">
  <defs
     id="defs4">
    <linearGradient
       id="linearGradient5256">
      <stop
         style="stop-color:#acacac;stop-opacity:1;"
         offset="0"
         id="stop5258" />
      <stop
         style="stop-color:#acacac;stop-opacity:0.99342108;"
         offset="1"
         id="stop5260" />
    </linearGradient>
    <linearGradient
       id="linearGradient3798">
      <stop
         style="stop-color:#acacac;stop-opacity:1;"
         offset="0"
         id="stop3800" />
      <stop
         style="stop-color:#acacac;stop-opacity:0.68421054;"
         offset="1"
         id="stop3802" />
    </linearGradient>
  </defs>
  <sodipodi:namedview
     id="base"
     pagecolor="#ffffff"
     bordercolor="#666666"
     borderopacity="1.0"
     inkscape:pageopacity="0.0"
     inkscape:pageshadow="2"
     inkscape:zoom="22.86"
     inkscape:cx="12.926509"
     inkscape:cy="17.716536"
     inkscape:document-units="px"
     inkscape:current-layer="layer2"
     showgrid="true"
     units="cm"
     inkscape:window-width="1920"
     inkscape:window-height="1015"
     inkscape:window-x="0"
     inkscape:window-y="28"
     inkscape:window-maximized="1">
    <inkscape:grid
       type="xygrid"
       id="grid2985"
       empspacing="5"
       visible="true"
       enabled="true"
       snapvisiblegridlinesonly="true"
       units="cm"
       spacingx="0.0125cm"
       spacingy="0.0125cm"
       originx="0cm"
       originy="0cm" />
  </sodipodi:namedview>
  <metadata
     id="metadata7">
    <rdf:RDF>
      <cc:Work
         rdf:about="">
        <dc:format>image/svg+xml</dc:format>
        <dc:type
           rdf:resource="http://purl.org/dc/dcmitype/StillImage" />
        <dc:title />
      </cc:Work>
    </rdf:RDF>
  </metadata>
  <g
     inkscape:groupmode="layer"
     id="layer2"
     inkscape:label="Calque">
    <path
       inkscape:connector-curvature="0"
       style="fill:#acacac;fill-opacity:1;stroke:none"
       d="M 20.1875,3.5312501 C 13.721152,3.5312501 8.5,8.7815001 8.5,15.25 c 0,2.2035 0.6295952,4.2412 1.6875,6 L 3.53125,27.9375 7.5,31.90625 14.1875,25.25 c 0.687393,0.412383 1.420048,0.760679 2.1875,1.03125 l 0,-3.8125 C 13.774085,21.10064 12,18.406243 12,15.25 c 0,-4.5402 3.647292,-8.2499999 8.1875,-8.2499999 4.540208,0 8.21875,3.7097999 8.21875,8.2499999 0,3.206009 -1.8212,5.935274 -4.5,7.28125 l 0,3.8125 c 4.651239,-1.549066 8,-5.922532 8,-11.09375 0,-6.4684999 -5.252365,-11.7187499 -11.71875,-11.7187499 z"
       id="path3772-9" />
    <path
       style="fill:#acacac;fill-opacity:1;stroke:none"
       d="m 18.405466,19.1259 3.532466,0 0,8.48 3.885712,0 -5.651945,5.6531 -5.651946,-5.6531 3.885713,0 z"
       id="path3874-1"
       inkscape:connector-curvature="0"
       sodipodi:nodetypes="cccccccc" />
  </g>
</svg>

<?xml version="1.0" encoding="UTF-8" standalone="no"?>
<!-- Created with Inkscape (http://www.inkscape.org/) -->

<svg
   xmlns:dc="http://purl.org/dc/elements/1.1/"
   xmlns:cc="http://creativecommons.org/ns#"
   xmlns:rdf="http://www.w3.org/1999/02/22-rdf-syntax-ns#"
   xmlns:svg="http://www.w3.org/2000/svg"
   xmlns="http://www.w3.org/2000/svg"
   xmlns:sodipodi="http://sodipodi.sourceforge.net/DTD/sodipodi-0.dtd"
   xmlns:inkscape="http://www.inkscape.org/namespaces/inkscape"
   width="35.433071"
   height="35.433071"
   id="svg2"
   version="1.1"
   inkscape:version="0.48.4 r9939"
   sodipodi:docname="search.svg">
  <defs
     id="defs4">
    <linearGradient
       id="linearGradient5256">
      <stop
         style="stop-color:#acacac;stop-opacity:1;"
         offset="0"
         id="stop5258" />
      <stop
         style="stop-color:#acacac;stop-opacity:0.99342108;"
         offset="1"
         id="stop5260" />
    </linearGradient>
    <linearGradient
       id="linearGradient3798">
      <stop
         style="stop-color:#acacac;stop-opacity:1;"
         offset="0"
         id="stop3800" />
      <stop
         style="stop-color:#acacac;stop-opacity:0.68421054;"
         offset="1"
         id="stop3802" />
    </linearGradient>
  </defs>
  <sodipodi:namedview
     id="base"
     pagecolor="#ffffff"
     bordercolor="#666666"
     borderopacity="1.0"
     inkscape:pageopacity="0.0"
     inkscape:pageshadow="2"
     inkscape:zoom="22.86"
     inkscape:cx="19.466317"
     inkscape:cy="17.716536"
     inkscape:document-units="px"
     inkscape:current-layer="nestor-icon"
     showgrid="true"
     units="cm"
     inkscape:window-width="1920"
     inkscape:window-height="1015"
     inkscape:window-x="0"
     inkscape:window-y="28"
     inkscape:window-maximized="1">
    <inkscape:grid
       type="xygrid"
       id="grid2985"
       empspacing="5"
       visible="true"
       enabled="true"
       snapvisiblegridlinesonly="true"
       units="cm"
       spacingx="0.0125cm"
       spacingy="0.0125cm"
       originx="0cm"
       originy="0cm" />
  </sodipodi:namedview>
  <metadata
     id="metadata7">
    <rdf:RDF>
      <cc:Work
         rdf:about="">
        <dc:format>image/svg+xml</dc:format>
        <dc:type
           rdf:resource="http://purl.org/dc/dcmitype/StillImage" />
        <dc:title></dc:title>
      </cc:Work>
    </rdf:RDF>
  </metadata>
  <g
     inkscape:label="Calque 1"
     inkscape:groupmode="layer"
     id="nestor-icon"
     transform="translate(0,-1016.9291)">
    <path
       style="fill:#acacac;fill-opacity:1;stroke:none"
       d="M 20.1875 3.53125 C 13.721152 3.53125 8.5 8.7815 8.5 15.25 C 8.5 17.4535 9.1295952 19.4912 10.1875 21.25 L 3.53125 27.9375 L 7.5 31.90625 L 14.1875 25.25 C 14.874893 25.662383 15.607548 26.010679 16.375 26.28125 L 16.375 22.46875 C 13.774085 21.10064 12 18.406243 12 15.25 C 12 10.7098 15.647292 7 20.1875 7 C 24.727708 7 28.40625 10.7098 28.40625 15.25 C 28.40625 18.456009 26.58505 21.185274 23.90625 22.53125 L 23.90625 26.34375 C 28.557489 24.794684 31.90625 20.421218 31.90625 15.25 C 31.90625 8.7815 26.653885 3.53125 20.1875 3.53125 z "
       transform="translate(0,1016.9291)"
       id="path3772" />
    <path
       style="fill:#acacac;fill-opacity:1;stroke:none"
       d="m 18.405466,1036.055 3.532466,0 0,8.48 3.885712,0 -5.651945,5.6531 -5.651946,-5.6531 3.885713,0 z"
       id="path3874"
       inkscape:connector-curvature="0"
       sodipodi:nodetypes="cccccccc" />
  </g>
</svg>
